X: 659
T: Kua nxiu
L: 1/8
M: 2/4
K: A
ze2c [I:setbarnb 1]| 
eB3 | 
ze2c | 
e AB2 | 
z e c e | 
FA3 | 
F B A A/ F/ | 
AE3 |]

@@@ Tune index: 9533
